svgs/duotone/line-height.svg

<svg xmlns="http://www.w3.org/2000/svg" viewBox="0 0 576 512"><!--! Font Awesome Pro 6.1.1 by @fontawesome - https://fontawesome.com License - https://fontawesome.com/license (Commercial License) Copyright 2022 Fonticons, Inc. --><defs><style>.fa-secondary{opacity:.4}</style></defs><path class="fa-primary" d="M73.37 41.37C85.87 28.88 106.1 28.88 118.6 41.37L182.6 105.4C195.1 117.9 195.1 138.1 182.6 150.6C170.1 163.1 149.9 163.1 137.4 150.6L127.1 141.3V370.7L137.4 361.4C149.9 348.9 170.1 348.9 182.6 361.4C195.1 373.9 195.1 394.1 182.6 406.6L118.6 470.6C106.1 483.1 85.87 483.1 73.37 470.6L9.372 406.6C-3.125 394.1-3.125 373.9 9.372 361.4C21.87 348.9 42.13 348.9 54.63 361.4L63.1 370.7V141.3L54.63 150.6C42.13 163.1 21.87 163.1 9.372 150.6C-3.125 138.1-3.125 117.9 9.372 105.4L73.37 41.37z"/><path class="fa-secondary" d="M256 96C256 78.33 270.3 64 288 64H544C561.7 64 576 78.33 576 96C576 113.7 561.7 128 544 128H288C270.3 128 256 113.7 256 96zM256 256C256 238.3 270.3 224 288 224H544C561.7 224 576 238.3 576 256C576 273.7 561.7 288 544 288H288C270.3 288 256 273.7 256 256zM544 384C561.7 384 576 398.3 576 416C576 433.7 561.7 448 544 448H288C270.3 448 256 433.7 256 416C256 398.3 270.3 384 288 384H544z"/></svg>

<svg xmlns="http://www.w3.org/2000/svg" viewBox="0 0 576 512"><!--! Font Awesome Pro 6.4.2 by @fontawesome - https://fontawesome.com License - https://fontawesome.com/license (Commercial License) Copyright 2023 Fonticons, Inc. --><path class="fa-primary" style="fill:var(--fa-primary-color,inherit);opacity:var(--fa-primary-opacity,1);" d="M73.4 41.4c12.5-12.5 32.8-12.5 45.3 0l64 64c12.5 12.5 12.5 32.8 0 45.3s-32.8 12.5-45.3 0l-9.4-9.4V370.7l9.4-9.4c12.5-12.5 32.8-12.5 45.3 0s12.5 32.8 0 45.3l-64 64c-12.5 12.5-32.8 12.5-45.3 0l-64-64c-12.5-12.5-12.5-32.8 0-45.3s32.8-12.5 45.3 0l9.4 9.4V141.3l-9.4 9.4c-12.5 12.5-32.8 12.5-45.3 0s-12.5-32.8 0-45.3l64-64z"/><path class="fa-secondary" style="fill:var(--fa-secondary-color,inherit);opacity:var(--fa-secondary-opacity,.4);" d="M256 96c0-17.7 14.3-32 32-32H544c17.7 0 32 14.3 32 32s-14.3 32-32 32H288c-17.7 0-32-14.3-32-32zm0 160c0-17.7 14.3-32 32-32H544c17.7 0 32 14.3 32 32s-14.3 32-32 32H288c-17.7 0-32-14.3-32-32zm32 128H544c17.7 0 32 14.3 32 32s-14.3 32-32 32H288c-17.7 0-32-14.3-32-32s14.3-32 32-32z"/></svg>
